flaticon/technology/game-console-1.svg

<svg xmlns="http://www.w3.org/2000/svg" width="32" height="32" viewBox="0 0 24 24">
    <path d="M 23.652344 12.296875 C 23.617188 12.199219 23.5625 12.113281 23.484375 12.042969 L 19.867188 8.714844 C 19.765625 8.632812 19.640625 8.589844 19.507812 8.589844 L 19.070312 8.589844 C 18.832031 6.566406 17.695312 4.230469 17.183594 3.269531 C 17.082031 3.078125 16.910156 2.925781 16.699219 2.851562 L 14.890625 2.191406 C 14.609375 2.089844 14.296875 2.128906 14.050781 2.292969 L 13.808594 2.453125 C 13.78125 2.472656 13.746094 2.484375 13.714844 2.484375 L 9.996094 2.484375 C 9.960938 2.484375 9.929688 2.472656 9.902344 2.453125 L 9.660156 2.292969 C 9.414062 2.128906 9.097656 2.089844 8.820312 2.191406 L 7.011719 2.851562 C 6.800781 2.925781 6.628906 3.078125 6.523438 3.269531 C 6.015625 4.230469 4.875 6.566406 4.636719 8.589844 L 4.578125 8.589844 C 4.445312 8.589844 4.316406 8.632812 4.199219 8.730469 L 0.53125 12.03125 C 0.441406 12.101562 0.382812 12.195312 0.347656 12.296875 C 0.136719 12.460938 0 12.714844 0 13.003906 L 0 20.960938 C 0 21.460938 0.40625 21.863281 0.902344 21.863281 L 23.097656 21.863281 C 23.59375 21.863281 24 21.460938 24 20.960938 L 24 13.003906 C 24 12.714844 23.863281 12.460938 23.652344 12.296875 Z M 0.890625 13.058594 L 10.984375 13.058594 L 10.984375 13.726562 L 0.8125 13.726562 L 0.8125 13.046875 C 0.839844 13.050781 0.863281 13.058594 0.890625 13.058594 Z M 0.8125 14.542969 L 10.984375 14.542969 L 10.984375 19.421875 L 0.8125 19.421875 Z M 11.796875 14.542969 L 23.1875 14.542969 L 23.1875 19.421875 L 11.796875 19.421875 Z M 11.796875 13.726562 L 11.796875 13.058594 L 23.109375 13.058594 C 23.136719 13.058594 23.160156 13.050781 23.1875 13.046875 L 23.1875 13.726562 Z M 7.242188 3.652344 C 7.253906 3.632812 7.269531 3.621094 7.289062 3.613281 L 9.097656 2.957031 C 9.113281 2.953125 9.125 2.949219 9.140625 2.949219 C 9.164062 2.949219 9.1875 2.957031 9.207031 2.96875 L 9.449219 3.132812 C 9.613281 3.238281 9.800781 3.296875 9.996094 3.296875 L 13.714844 3.296875 C 13.910156 3.296875 14.097656 3.238281 14.261719 3.132812 L 14.503906 2.96875 C 14.535156 2.949219 14.574219 2.941406 14.613281 2.957031 L 16.421875 3.613281 C 16.441406 3.621094 16.457031 3.632812 16.464844 3.652344 C 17.648438 5.882812 19.222656 9.925781 17.589844 10.929688 L 15.4375 9.085938 C 15.347656 9.007812 15.253906 8.941406 15.148438 8.878906 C 14.828125 8.6875 14.460938 8.585938 14.082031 8.585938 L 9.628906 8.585938 C 9.609375 8.585938 9.589844 8.589844 9.570312 8.589844 L 9.5625 8.589844 C 9.554688 8.589844 9.546875 8.59375 9.539062 8.59375 C 9.429688 8.597656 9.320312 8.609375 9.214844 8.628906 C 9.207031 8.632812 9.203125 8.632812 9.199219 8.632812 C 9.085938 8.65625 8.980469 8.6875 8.875 8.726562 C 8.859375 8.734375 8.839844 8.746094 8.824219 8.753906 C 8.734375 8.789062 8.644531 8.828125 8.5625 8.878906 C 8.457031 8.941406 8.363281 9.007812 8.269531 9.085938 L 6.085938 10.9375 C 6 10.882812 5.921875 10.8125 5.855469 10.738281 C 5.835938 10.722656 5.820312 10.703125 5.804688 10.6875 C 5.738281 10.609375 5.679688 10.523438 5.632812 10.429688 C 5.628906 10.421875 5.625 10.410156 5.621094 10.402344 C 5.578125 10.3125 5.542969 10.21875 5.511719 10.117188 C 5.503906 10.09375 5.5 10.070312 5.492188 10.042969 C 5.433594 9.808594 5.40625 9.546875 5.410156 9.261719 C 5.410156 9.25 5.410156 9.238281 5.410156 9.230469 C 5.441406 7.558594 6.433594 5.179688 7.242188 3.652344 Z M 4.59375 9.46875 C 4.597656 9.488281 4.597656 9.503906 4.597656 9.523438 C 4.601562 9.601562 4.609375 9.675781 4.617188 9.75 C 4.621094 9.785156 4.621094 9.824219 4.625 9.859375 C 4.640625 9.960938 4.65625 10.058594 4.675781 10.15625 C 4.683594 10.1875 4.691406 10.214844 4.699219 10.242188 C 4.71875 10.3125 4.734375 10.378906 4.757812 10.445312 C 4.769531 10.480469 4.78125 10.515625 4.796875 10.550781 C 4.816406 10.605469 4.839844 10.660156 4.863281 10.714844 C 4.878906 10.75 4.894531 10.78125 4.914062 10.816406 C 4.941406 10.867188 4.96875 10.914062 5 10.964844 C 5.015625 10.996094 5.035156 11.023438 5.054688 11.054688 C 5.089844 11.101562 5.125 11.148438 5.164062 11.191406 C 5.183594 11.21875 5.203125 11.246094 5.226562 11.269531 C 5.269531 11.316406 5.316406 11.359375 5.367188 11.40625 C 5.386719 11.421875 5.402344 11.441406 5.425781 11.460938 C 5.496094 11.519531 5.570312 11.574219 5.652344 11.625 C 5.957031 11.820312 6.367188 11.789062 6.648438 11.550781 L 8.800781 9.703125 C 8.855469 9.65625 8.914062 9.617188 8.976562 9.578125 C 9.023438 9.550781 9.074219 9.527344 9.125 9.507812 C 9.140625 9.5 9.152344 9.492188 9.167969 9.488281 C 9.226562 9.464844 9.289062 9.445312 9.347656 9.433594 C 9.355469 9.433594 9.363281 9.429688 9.371094 9.429688 C 9.4375 9.414062 9.507812 9.40625 9.578125 9.402344 L 14.121094 9.402344 C 14.339844 9.410156 14.550781 9.472656 14.734375 9.578125 C 14.796875 9.617188 14.855469 9.65625 14.910156 9.707031 L 17.058594 11.550781 C 17.125 11.605469 17.199219 11.648438 17.273438 11.679688 C 17.285156 11.683594 17.292969 11.6875 17.300781 11.691406 C 17.375 11.722656 17.449219 11.738281 17.527344 11.746094 C 17.542969 11.746094 17.554688 11.75 17.570312 11.75 C 17.585938 11.75 17.601562 11.753906 17.617188 11.753906 C 17.660156 11.753906 17.699219 11.742188 17.742188 11.738281 C 17.769531 11.730469 17.796875 11.730469 17.828125 11.726562 C 17.90625 11.703125 17.984375 11.671875 18.058594 11.628906 C 18.140625 11.574219 18.214844 11.519531 18.285156 11.460938 C 18.308594 11.441406 18.328125 11.417969 18.351562 11.398438 C 18.398438 11.355469 18.445312 11.3125 18.484375 11.265625 C 18.511719 11.238281 18.53125 11.210938 18.554688 11.183594 C 18.589844 11.140625 18.625 11.09375 18.65625 11.046875 C 18.679688 11.015625 18.699219 10.984375 18.71875 10.953125 C 18.75 10.902344 18.777344 10.855469 18.800781 10.804688 C 18.820312 10.769531 18.835938 10.734375 18.855469 10.699219 C 18.878906 10.644531 18.902344 10.589844 18.921875 10.53125 C 18.933594 10.496094 18.949219 10.460938 18.960938 10.425781 C 18.988281 10.335938 19.015625 10.242188 19.035156 10.148438 C 19.042969 10.113281 19.046875 10.078125 19.054688 10.042969 C 19.066406 9.972656 19.078125 9.90625 19.085938 9.832031 C 19.089844 9.789062 19.09375 9.746094 19.097656 9.699219 C 19.105469 9.628906 19.109375 9.554688 19.113281 9.480469 C 19.113281 9.453125 19.117188 9.429688 19.117188 9.40625 L 19.414062 9.40625 L 22.34375 12.101562 L 1.667969 12.101562 Z M 0.902344 21.050781 C 0.851562 21.050781 0.8125 21.011719 0.8125 20.960938 L 0.8125 20.238281 L 10.984375 20.238281 L 10.984375 21.050781 Z M 23.097656 21.050781 L 11.796875 21.050781 L 11.796875 20.238281 L 23.1875 20.238281 L 23.1875 20.960938 C 23.1875 21.011719 23.148438 21.050781 23.097656 21.050781 Z M 23.097656 21.050781"/>
    <path d="M2.035156 16.574219L8.136719 16.574219 8.136719 17.390625 2.035156 17.390625zM8.949219 16.574219L9.761719 16.574219 9.761719 17.390625 8.949219 17.390625zM20.339844 15.355469C19.441406 15.355469 18.710938 16.085938 18.710938 16.984375 18.710938 17.878906 19.441406 18.609375 20.339844 18.609375 21.238281 18.609375 21.964844 17.878906 21.964844 16.984375 21.964844 16.085938 21.238281 15.355469 20.339844 15.355469zM20.339844 17.796875C19.890625 17.796875 19.527344 17.429688 19.527344 16.984375 19.527344 16.535156 19.890625 16.167969 20.339844 16.167969 20.789062 16.167969 21.152344 16.535156 21.152344 16.984375 21.152344 17.429688 20.789062 17.796875 20.339844 17.796875zM14.441406 8.035156C15.226562 8.035156 15.863281 7.394531 15.863281 6.609375 15.863281 5.824219 15.226562 5.1875 14.441406 5.1875 13.65625 5.1875 13.015625 5.824219 13.015625 6.609375 13.015625 7.394531 13.65625 8.035156 14.441406 8.035156zM14.441406 6C14.777344 6 15.050781 6.273438 15.050781 6.609375 15.050781 6.945312 14.777344 7.21875 14.441406 7.21875 14.105469 7.21875 13.832031 6.945312 13.832031 6.609375 13.832031 6.273438 14.105469 6 14.441406 6zM8.339844 6.40625C9.125 6.40625 9.761719 5.769531 9.761719 4.984375 9.761719 4.199219 9.125 3.558594 8.339844 3.558594 7.554688 3.558594 6.914062 4.199219 6.914062 4.984375 6.914062 5.769531 7.554688 6.40625 8.339844 6.40625zM8.339844 4.371094C8.675781 4.371094 8.949219 4.644531 8.949219 4.984375 8.949219 5.320312 8.675781 5.59375 8.339844 5.59375 8.003906 5.59375 7.730469 5.320312 7.730469 4.984375 7.730469 4.644531 8.003906 4.371094 8.339844 4.371094zM9.761719 6.8125L8.949219 6.8125 8.949219 7.625 9.761719 7.625 9.761719 8.441406 10.578125 8.441406 10.578125 7.625 11.390625 7.625 11.390625 6.8125 10.578125 6.8125 10.578125 6 9.761719 6zM13.015625 3.964844L13.832031 3.964844 13.832031 4.777344 13.015625 4.777344zM14.644531 3.558594L15.457031 3.558594 15.457031 4.371094 14.644531 4.371094zM14.644531 3.558594"/>
</svg>

<svg xmlns="http://www.w3.org/2000/svg" width="32" height="32" viewBox="0 0 24 24">
    <path d="M23.652 12.297a.616.616 0 0 0-.168-.254l-3.617-3.328a.566.566 0 0 0-.36-.125h-.437c-.238-2.024-1.375-4.36-1.886-5.32a.882.882 0 0 0-.485-.418l-1.808-.66a.94.94 0 0 0-.84.101l-.242.16a.168.168 0 0 1-.094.031H9.996a.159.159 0 0 1-.094-.03l-.242-.161a.942.942 0 0 0-.84-.102l-1.808.66a.903.903 0 0 0-.489.419c-.507.96-1.648 3.296-1.886 5.32h-.059a.579.579 0 0 0-.379.14L.531 12.031a.565.565 0 0 0-.183.266.892.892 0 0 0-.348.707v7.957c0 .5.406.902.902.902h22.196a.903.903 0 0 0 .902-.902v-7.957a.892.892 0 0 0-.348-.707zm-22.761.762h10.093v.668H.813v-.68c.027.004.05.012.078.012zm-.079 1.484h10.172v4.879H.813zm10.985 0h11.39v4.879h-11.39zm0-.816v-.668h11.312c.028 0 .051-.008.078-.012v.68zM7.242 3.652a.091.091 0 0 1 .047-.039l1.809-.656c.015-.004.027-.008.043-.008.023 0 .046.008.066.02l.242.164c.164.105.352.164.547.164h3.719c.195 0 .383-.059.547-.164l.242-.164a.12.12 0 0 1 .11-.012l1.808.656c.02.008.035.02.043.04 1.183 2.23 2.758 6.273 1.125 7.277l-2.152-1.844a2.075 2.075 0 0 0-1.355-.5H9.628c-.02 0-.04.004-.059.004h-.008c-.007 0-.015.004-.023.004-.11.004-.219.015-.324.035-.008.004-.012.004-.016.004a2.213 2.213 0 0 0-.324.094c-.016.007-.035.02-.05.027-.09.035-.18.074-.262.125a2.2 2.2 0 0 0-.293.207l-2.184 1.851a1.128 1.128 0 0 1-.23-.199c-.02-.015-.036-.035-.051-.05a1.289 1.289 0 0 1-.172-.258l-.012-.028a2.056 2.056 0 0 1-.11-.285c-.007-.023-.011-.047-.019-.074a3.056 3.056 0 0 1-.082-.781V9.23c.031-1.671 1.024-4.05 1.832-5.578zM4.594 9.47c.004.02.004.035.004.054.004.079.011.153.02.227.003.035.003.074.007.11.016.1.031.199.05.296l.024.086c.02.07.035.137.059.203.012.035.023.07.039.106.02.054.043.11.066.164a2.901 2.901 0 0 0 .137.25c.016.031.035.058.055.09.035.047.07.093.11.136.019.028.038.055.062.079.043.046.09.09.14.136.02.016.035.035.059.055.07.059.144.113.226.164a.847.847 0 0 0 .996-.074l2.153-1.848a1.032 1.032 0 0 1 .324-.195c.016-.008.027-.016.043-.02a1.05 1.05 0 0 1 .18-.054c.007 0 .015-.004.023-.004a1.2 1.2 0 0 1 .207-.028h4.543c.219.008.43.07.613.176.063.04.121.078.176.129l2.149 1.844a.872.872 0 0 0 .242.14.768.768 0 0 0 .226.055c.016 0 .028.004.043.004.016 0 .032.004.047.004.043 0 .082-.012.125-.016.028-.008.055-.008.086-.011.078-.024.156-.055.23-.098.083-.055.157-.11.227-.168.024-.02.043-.043.067-.063a1.42 1.42 0 0 0 .132-.132c.028-.028.047-.055.07-.082.036-.043.071-.09.102-.137.024-.031.043-.063.063-.094.031-.05.058-.098.082-.148.02-.035.035-.07.054-.106.024-.054.047-.11.067-.168l.039-.105c.027-.09.055-.184.074-.278.008-.035.012-.07.02-.105.011-.07.023-.137.03-.211l.013-.133a3.84 3.84 0 0 0 .015-.219c0-.027.004-.05.004-.074h.297l2.93 2.696H1.668zM.902 21.05c-.05 0-.09-.04-.09-.09v-.723h10.172v.813zm22.196 0H11.797v-.813h11.39v.723c0 .05-.039.09-.09.09zm0 0"/>
    <path d="M2.035 16.574h6.102v.817H2.035zm0 0M8.95 16.574h.812v.817h-.813zm0 0M20.34 15.355a1.63 1.63 0 0 0-1.63 1.63 1.626 1.626 0 1 0 1.629-1.629zm0 2.442a.814.814 0 0 1 0-1.629.815.815 0 0 1 0 1.629zm0 0M14.441 8.035c.786 0 1.422-.64 1.422-1.426 0-.785-.636-1.421-1.422-1.421-.785 0-1.425.636-1.425 1.421 0 .786.64 1.426 1.425 1.426zm0-2.035a.61.61 0 1 1-.001 1.22A.61.61 0 0 1 14.44 6zm0 0M8.34 6.406c.785 0 1.422-.636 1.422-1.422 0-.785-.637-1.425-1.422-1.425-.785 0-1.426.64-1.426 1.425 0 .786.64 1.422 1.426 1.422zm0-2.035a.611.611 0 0 1 0 1.223.61.61 0 0 1 0-1.223zm0 0M9.762 6.813h-.813v.812h.813v.816h.816v-.816h.813v-.813h-.813V6h-.816zm0 0M13.016 3.965h.816v.812h-.816zm0 0M14.645 3.559h.812v.812h-.812zm0 0"/>
</svg>
